packages/icons/src/coupon.svg

<svg width="24" height="24" viewBox="0 0 24 24" fill="none" xmlns="http://www.w3.org/2000/svg">
<path d="M15.066 9.99473L14.0053 8.93407L8.93424 14.0051L9.9949 15.0658L15.066 9.99473Z" fill="black"/>
<path d="M15.4903 14.4992C15.4903 13.9469 15.0426 13.4992 14.4903 13.4992C13.938 13.4992 13.4903 13.9469 13.4903 14.4992C13.4903 15.0515 13.938 15.4992 14.4903 15.4992C15.0426 15.4992 15.4903 15.0515 15.4903 14.4992Z" fill="black"/>
<path d="M10.5181 9.53351C10.5181 8.98122 10.0704 8.53351 9.51807 8.53351C8.96578 8.53351 8.51807 8.98122 8.51807 9.53351C8.51807 10.0858 8.96578 10.5335 9.51807 10.5335C10.0704 10.5335 10.5181 10.0858 10.5181 9.53351Z" fill="black"/>
<path fill-rule="evenodd" clip-rule="evenodd" d="M2 8C2 5.79086 3.79086 4 6 4H18C20.2091 4 22 5.79086 22 8V16C22 18.2091 20.2091 20 18 20H6C3.79086 20 2 18.2091 2 16V8ZM6 6H18C19.1046 6 20 6.89543 20 8V16C20 17.1046 19.1046 18 18 18H6C4.89543 18 4 17.1046 4 16V8C4 6.89543 4.89543 6 6 6Z" fill="black"/>
</svg>

<svg xmlns="http://www.w3.org/2000/svg" width="24" height="24" fill="none" viewBox="0 0 24 24">
  <path fill="#000" d="m15.066 9.995-1.06-1.06-5.072 5.07 1.06 1.06 5.072-5.07Zm.424 4.505a1 1 0 1 0-2 0 1 1 0 0 0 2 0Zm-4.972-4.966a1 1 0 1 0-2 0 1 1 0 0 0 2 0Z"/>
  <path fill="#000" fill-rule="evenodd" d="M2 8a4 4 0 0 1 4-4h12a4 4 0 0 1 4 4v8a4 4 0 0 1-4 4H6a4 4 0 0 1-4-4V8Zm4-2h12a2 2 0 0 1 2 2v8a2 2 0 0 1-2 2H6a2 2 0 0 1-2-2V8a2 2 0 0 1 2-2Z" clip-rule="evenodd"/>
</svg>
